lib/brands/icons/diners-club.svg

<svg xmlns="http://www.w3.org/2000/svg" fill="none" aria-hidden="true" viewBox="0 0 48 48"><g id="Diners Club-Icon"><path id="DinersClub" fill="#0079BE" fill-rule="evenodd" d="M20.4277 41.614H26.8041C36.7574 41.614 44.689 33.7175 45 23.9629V23.8081C44.8445 13.8987 36.7574 5.84736 26.8041 6.0022H19.6501C10.1633 6.31186 2.69834 14.3632 3.00938 23.9629C3.00938 33.5627 10.7854 41.4592 20.4277 41.614ZM6.12012 23.808C6.12012 15.7566 12.8075 9.09875 20.8946 9.09875C28.9817 9.09875 35.6691 15.7566 35.6691 23.808C35.6691 31.8594 28.9817 38.5172 20.8946 38.5172C12.8075 38.5172 6.12012 31.8594 6.12012 23.808ZM23.2275 33.7174V14.0535C28.6708 15.447 32.0922 20.8662 30.6925 26.2854C29.7594 30.0014 26.96 32.7884 23.2275 33.7174ZM11.2516 21.3307C9.85192 26.7499 13.1179 32.3239 18.5611 33.7174V14.0535C14.9841 14.9825 12.1847 17.7695 11.2516 21.3307Z" clip-rule="evenodd"/></g></svg>

<svg xmlns="http://www.w3.org/2000/svg" fill="none" aria-hidden="true" viewBox="0 0 48 48"><path fill="#0079BE" fill-rule="evenodd" d="M20.428 41.614h6.376c9.953 0 17.885-7.896 18.196-17.651v-.155c-.156-9.91-8.243-17.96-18.196-17.806H19.65c-9.487.31-16.952 8.361-16.64 17.96 0 9.6 7.775 17.497 17.418 17.652ZM6.12 23.808c0-8.051 6.687-14.71 14.775-14.71 8.087 0 14.774 6.659 14.774 14.71 0 8.051-6.687 14.71-14.774 14.71-8.088 0-14.775-6.659-14.775-14.71Zm17.107 9.91V14.052c5.444 1.394 8.865 6.813 7.465 12.232-.933 3.716-3.732 6.503-7.465 7.432ZM11.252 21.33c-1.4 5.419 1.866 10.993 7.31 12.386V14.054a10.205 10.205 0 0 0-7.31 7.277Z" clip-rule="evenodd"/></svg>
